X:1
T:Be Ye Strong in the Lord
T:Be Ye Strong in the Lord
T:Ira David Sankey
T:Daniel Webster Whittle, 1887
T:Public Domain Courtesy of the Cyber Hymnal™
T:Public Domain Courtesy of the Cyber Hymnal™
C:Ira David Sankey
Z:Public Domain
Z:Courtesy of the Cyber Hymnal™
%%score ( 1 2 ) ( 3 4 )
L:1/8
Q:1/4=95
M:4/4
K:G
V:1 treble 
V:2 treble 
V:3 bass 
V:4 bass 
V:1
 [B,D][B,D] | [DG]2 [DG]>[DG] [DF]2 DD | [Dc][Ec][Fc][Dc] [DB]2 DD | %3
w: 1.~Be ye|strong in the Lord and the|pow- er of His might, Firm- ly|
w: 2.~Be ye|strong in the Lord and the|pow- er of His might, Nev- er|
w: 3.~Be ye|strong in the Lord and the|pow- er of His might, For His|
 [CE][DF][DG][DA] ([DB][DB])[^CA][CG] | [Fd]6 DD | [Dc][Ec][Fc][Dc] [DB]2 DD | %6
w: stand- ing for the truth * of His|word; He shall|lead you safe- ly through in the|
w: turn- ing from the face * of the|foe; He will|sure- ly by you stand, as you|
w: prom- is- es shall never, * nev- er|fail; And thy|right hand He will hold, as you|
 [Dc][Ec][Fc][Dc] [DB]2 DD | [CE][DF][DG][EA] ([DB][DB]) [FA]>G | G6 ||"^Refrain" d>e | %10
w: thick- est of the fight, You shall|con- quer in the name * of the|Lord.||
w: bat- tle for the right, In the|pow- er of His might * on- ward|go.|Firm- ly|
w: bat- tle for the right— Trust- ing|Him thou shalt for ever- * more pre-|vail.||
 (z2 d>)e x6 | (z2 G)G x8 | [Ge]3 [Gd] [Fc][GB] [DA]>[CG] | [DA]6 DD | %14
w: ||||
w: * stand|* for|the right, On to vic- tory|at the King’s|
w: ||||
 [DB][GB] [FA]>[FA] G2 [DG][DF] | [CE][EG][DF][CE] [B,D]2 [B,D][B,D] | %16
w: ||
w: com- mand; For the hon- or of|the Lord, and the tri- umph of|
w: ||
 [DG]2 [B,G]>[B,G] [DB]2 [FA]>G | G6 |] %18
w: ||
w: His word, In the strength of|the|
w: ||
V:2
 x2 | x6 DD | x6 DD | x8 | x6 DD | x6 DD | x6 DD | x15/2 G/ | G6 || x2 | (d6 F>G A2) | %11
 (d6 G>A B2) GG | x8 | x6 DD | x4 G2 x2 | x8 | x15/2 G/ | G6 |] %18
V:3
 G,G, | [G,B,]2 [G,B,]>[G,B,] [D,A,]2 [D,F,][D,F,] | %2
w: ~ ~|~ ~ ~ ~ ~ ~|
 [D,F,][D,G,][D,A,][D,F,] [G,,G,]2 [B,,G,][B,,G,] | [C,G,][C,A,][B,,G,][D,F,] G,G,[E,A,][E,A,] | %4
w: ~ ~ ~ ~ ~ ~ ~|~ ~ ~ ~ ~ ~ ~ ~|
 [D,A,]6 [D,F,][D,F,] | [D,F,][D,G,][D,A,][D,F,] [G,,G,]2 [B,,G,][B,,G,] | %6
w: ~ ~ ~|~ ~ ~ ~ ~ ~ ~|
 [D,F,][D,G,][D,A,][D,F,] [G,,G,]2 [B,,G,][B,,G,] | %7
w: ~ ~ ~ ~ ~ ~ ~|
 [C,G,][C,A,][B,,G,][C,G,] ([D,G,][D,G,]) [D,C]>[D,B,] | [G,,B,]6 || z2 | %10
w: ~ ~ ~ ~ ~ * ~ ~|Firm-||
 z2 [D,A,]>[D,B,] [D,C]2 z2 x2 | z2 [G,B,]>[G,C] [G,D]2 [G,B,][G,B,] x4 | %12
w: ly- stand for|the right * * *|
 C3 [B,D] [A,D][G,D] [F,D]>[E,A,] | [D,F,]6 [F,C][F,C] | %14
w: ||
 [G,B,][G,D] [D,C]>[D,C] [E,B,]2 [B,,G,][B,,G,] | %15
w: |
 [C,G,][C,G,][C,G,][C,G,] [G,,G,]2 [G,,G,][G,,G,] | [B,,G,]2 [E,G,]>[E,G,] [D,G,]2 [D,C]>[D,B,] | %17
w: ||
 [G,,B,]6 |] %18
w: |
V:4
 G,G, | x8 | x8 | x4 (G,G,) x2 | x8 | x8 | x8 | x8 | x6 || x2 | x10 | x12 | C3 x5 | x8 | x8 | x8 | %16
 x8 | x6 |] %18

